src/pages/elements/pictograms/images/11_Gradients_6_dont.svg

<?xml version="1.0" encoding="UTF-8"?>
<svg width="288px" height="288px" viewBox="0 0 288 288" version="1.1" xmlns="http://www.w3.org/2000/svg" xmlns:xlink="http://www.w3.org/1999/xlink">
    <!-- Generator: Sketch 52.4 (67378) - http://www.bohemiancoding.com/sketch -->
    <title>Artboard</title>
    <desc>Created with Sketch.</desc>
    <defs>
        <path d="M51.75,3.67425 C50.60575,3.67425 49.68,4.60575 49.68,5.75 L49.68,26.68 L5.75,26.68 C4.60575,26.68 3.68,27.60575 3.68,28.75 L3.68,155.25 C3.68,156.39425 4.60575,157.32575 5.75,157.32575 L49.68,157.32575 L49.68,178.25 C49.68,179.39425 50.60575,180.32 51.75,180.32 L132.25,180.32 C133.3885,180.32 134.32,179.39425 134.32,178.25 L134.32,157.32575 L178.25,157.32575 C179.39425,157.32575 180.32575,156.39425 180.32575,155.25 L180.32575,28.75 C180.32575,27.60575 179.39425,26.68 178.25,26.68 L134.32,26.68 L134.32,5.75 C134.32,4.60575 133.3885,3.67425 132.25,3.67425 L51.75,3.67425 Z M53.82,176.17425 L130.17425,176.17425 L130.17425,7.82 L53.82,7.82 L53.82,176.17425 Z M134.32,30.82 L176.18,30.82 L176.18,153.18 L134.32,153.18 L134.32,82.57 L155.25,82.57 C156.39425,82.57 157.32,81.64425 157.32,80.5 C157.32,79.35575 156.39425,78.43 155.25,78.43 L134.32,78.43 L134.32,65.32 L155.25,65.32 C156.39425,65.32 157.32,64.39425 157.32,63.25 C157.32,62.10575 156.39425,61.17425 155.25,61.17425 L134.32,61.17425 L134.32,48.07575 L155.25,48.07575 C156.39425,48.07575 157.32,47.14425 157.32,46 C157.32,44.85575 156.39425,43.93 155.25,43.93 L134.32,43.93 L134.32,30.82 Z M7.82575,30.82 L49.68,30.82 L49.68,43.93 L28.75,43.93 C27.60575,43.93 26.67425,44.85575 26.67425,46 C26.67425,47.14425 27.60575,48.07575 28.75,48.07575 L49.68,48.07575 L49.68,61.17425 L28.75,61.17425 C27.60575,61.17425 26.67425,62.10575 26.67425,63.25 C26.67425,64.39425 27.60575,65.32 28.75,65.32 L49.68,65.32 L49.68,78.43 L28.75,78.43 C27.60575,78.43 26.67425,79.35575 26.67425,80.5 C26.67425,81.64425 27.60575,82.57 28.75,82.57 L49.68,82.57 L49.68,153.18 L7.82575,153.18 L7.82575,30.82 Z M69,20.92425 C67.8615,20.92425 66.93,21.85575 66.93,23 C66.93,24.14425 67.8615,25.07 69,25.07 L115,25.07 C116.14425,25.07 117.07,24.14425 117.07,23 C117.07,21.85575 116.14425,20.92425 115,20.92425 L69,20.92425 Z M69,38.18 C67.8615,38.18 66.93,39.10575 66.93,40.25 C66.93,41.4 67.8615,42.32575 69,42.32575 L115,42.32575 C116.14425,42.32575 117.07,41.4 117.07,40.25 C117.07,39.10575 116.14425,38.18 115,38.18 L69,38.18 Z M69,55.42425 C67.8615,55.42425 66.93,56.35575 66.93,57.5 C66.93,58.64425 67.8615,59.57 69,59.57 L115,59.57 C116.14425,59.57 117.07,58.64425 117.07,57.5 C117.07,56.35575 116.14425,55.42425 115,55.42425 L69,55.42425 Z" id="path-1"></path>
        <linearGradient x1="6.85266983%" y1="93.1473302%" x2="93.1440747%" y2="6.85592526%" id="linearGradient-3">
            <stop stop-color="#0062FF" offset="0%"></stop>
            <stop stop-color="#48EEEE" offset="100%"></stop>
        </linearGradient>
    </defs>
    <g id="Artboard" stroke="none" stroke-width="1" fill="none" fill-rule="evenodd">
        <rect id="Rectangle-3-Copy-45" fill="#FFFFFF" x="0" y="0" width="288" height="288"></rect>
        <g id="Group-5-Copy" transform="translate(52.000000, 52.000000)">
            <polygon id="Fill-1" points="0 184 184 184 184 0 0 0"></polygon>
            <g id="Group-4">
                <mask id="mask-2" fill="white">
                    <use xlink:href="#path-1"></use>
                </mask>
                <g id="Clip-3"></g>
                <path d="M51.75,3.67425 C50.60575,3.67425 49.68,4.60575 49.68,5.75 L49.68,26.68 L5.75,26.68 C4.60575,26.68 3.68,27.60575 3.68,28.75 L3.68,155.25 C3.68,156.39425 4.60575,157.32575 5.75,157.32575 L49.68,157.32575 L49.68,178.25 C49.68,179.39425 50.60575,180.32 51.75,180.32 L132.25,180.32 C133.3885,180.32 134.32,179.39425 134.32,178.25 L134.32,157.32575 L178.25,157.32575 C179.39425,157.32575 180.32575,156.39425 180.32575,155.25 L180.32575,28.75 C180.32575,27.60575 179.39425,26.68 178.25,26.68 L134.32,26.68 L134.32,5.75 C134.32,4.60575 133.3885,3.67425 132.25,3.67425 L51.75,3.67425 Z M53.82,176.17425 L130.17425,176.17425 L130.17425,7.82 L53.82,7.82 L53.82,176.17425 Z M134.32,30.82 L176.18,30.82 L176.18,153.18 L134.32,153.18 L134.32,82.57 L155.25,82.57 C156.39425,82.57 157.32,81.64425 157.32,80.5 C157.32,79.35575 156.39425,78.43 155.25,78.43 L134.32,78.43 L134.32,65.32 L155.25,65.32 C156.39425,65.32 157.32,64.39425 157.32,63.25 C157.32,62.10575 156.39425,61.17425 155.25,61.17425 L134.32,61.17425 L134.32,48.07575 L155.25,48.07575 C156.39425,48.07575 157.32,47.14425 157.32,46 C157.32,44.85575 156.39425,43.93 155.25,43.93 L134.32,43.93 L134.32,30.82 Z M7.82575,30.82 L49.68,30.82 L49.68,43.93 L28.75,43.93 C27.60575,43.93 26.67425,44.85575 26.67425,46 C26.67425,47.14425 27.60575,48.07575 28.75,48.07575 L49.68,48.07575 L49.68,61.17425 L28.75,61.17425 C27.60575,61.17425 26.67425,62.10575 26.67425,63.25 C26.67425,64.39425 27.60575,65.32 28.75,65.32 L49.68,65.32 L49.68,78.43 L28.75,78.43 C27.60575,78.43 26.67425,79.35575 26.67425,80.5 C26.67425,81.64425 27.60575,82.57 28.75,82.57 L49.68,82.57 L49.68,153.18 L7.82575,153.18 L7.82575,30.82 Z M69,20.92425 C67.8615,20.92425 66.93,21.85575 66.93,23 C66.93,24.14425 67.8615,25.07 69,25.07 L115,25.07 C116.14425,25.07 117.07,24.14425 117.07,23 C117.07,21.85575 116.14425,20.92425 115,20.92425 L69,20.92425 Z M69,38.18 C67.8615,38.18 66.93,39.10575 66.93,40.25 C66.93,41.4 67.8615,42.32575 69,42.32575 L115,42.32575 C116.14425,42.32575 117.07,41.4 117.07,40.25 C117.07,39.10575 116.14425,38.18 115,38.18 L69,38.18 Z M69,55.42425 C67.8615,55.42425 66.93,56.35575 66.93,57.5 C66.93,58.64425 67.8615,59.57 69,59.57 L115,59.57 C116.14425,59.57 117.07,58.64425 117.07,57.5 C117.07,56.35575 116.14425,55.42425 115,55.42425 L69,55.42425 Z" id="Fill-2" fill="url(#linearGradient-3)" mask="url(#mask-2)"></path>
            </g>
        </g>
    </g>
</svg>

<svg xmlns="http://www.w3.org/2000/svg" xmlns:xlink="http://www.w3.org/1999/xlink" viewBox="0 0 288 288"><defs><linearGradient x1="6.853%" y1="93.147%" x2="93.144%" y2="6.856%" id="b"><stop stop-color="#0062FF" offset="0%"/><stop stop-color="#48EEEE" offset="100%"/></linearGradient><path d="M51.75 3.674c-1.144 0-2.07.932-2.07 2.076v20.93H5.75c-1.144 0-2.07.926-2.07 2.07v126.5c0 1.144.926 2.076 2.07 2.076h43.93v20.924c0 1.144.926 2.07 2.07 2.07h80.5c1.138 0 2.07-.926 2.07-2.07v-20.924h43.93a2.079 2.079 0 002.076-2.076V28.75c0-1.144-.932-2.07-2.076-2.07h-43.93V5.75a2.077 2.077 0 00-2.07-2.076h-80.5zm2.07 172.5h76.354V7.82H53.82v168.354zm80.5-145.354h41.86v122.36h-41.86V82.57h20.93a2.069 2.069 0 100-4.14h-20.93V65.32h20.93a2.074 2.074 0 000-4.146h-20.93V48.076h20.93a2.074 2.074 0 000-4.146h-20.93V30.82zm-126.494 0H49.68v13.11H28.75A2.074 2.074 0 0026.674 46a2.08 2.08 0 002.076 2.076h20.93v13.098H28.75a2.079 2.079 0 00-2.076 2.076c0 1.144.932 2.07 2.076 2.07h20.93v13.11H28.75a2.074 2.074 0 00-2.076 2.07c0 1.144.932 2.07 2.076 2.07h20.93v70.61H7.826V30.82zM69 20.924a2.072 2.072 0 000 4.146h46a2.074 2.074 0 000-4.146H69zm0 17.256a2.072 2.072 0 000 4.146h46a2.07 2.07 0 002.07-2.076c0-1.144-.926-2.07-2.07-2.07H69zm0 17.244a2.072 2.072 0 000 4.146h46a2.074 2.074 0 000-4.146H69z" id="a"/></defs><g fill="none" fill-rule="evenodd"><path fill="#FFF" d="M0 0h288v288H0z"/><path d="M52 236h184V52H52z"/><g transform="translate(52 52)"><mask id="c" fill="#fff"><use xlink:href="#a"/></mask><path d="M51.75 3.674c-1.144 0-2.07.932-2.07 2.076v20.93H5.75c-1.144 0-2.07.926-2.07 2.07v126.5c0 1.144.926 2.076 2.07 2.076h43.93v20.924c0 1.144.926 2.07 2.07 2.07h80.5c1.138 0 2.07-.926 2.07-2.07v-20.924h43.93a2.079 2.079 0 002.076-2.076V28.75c0-1.144-.932-2.07-2.076-2.07h-43.93V5.75a2.077 2.077 0 00-2.07-2.076h-80.5zm2.07 172.5h76.354V7.82H53.82v168.354zm80.5-145.354h41.86v122.36h-41.86V82.57h20.93a2.069 2.069 0 100-4.14h-20.93V65.32h20.93a2.074 2.074 0 000-4.146h-20.93V48.076h20.93a2.074 2.074 0 000-4.146h-20.93V30.82zm-126.494 0H49.68v13.11H28.75A2.074 2.074 0 0026.674 46a2.08 2.08 0 002.076 2.076h20.93v13.098H28.75a2.079 2.079 0 00-2.076 2.076c0 1.144.932 2.07 2.076 2.07h20.93v13.11H28.75a2.074 2.074 0 00-2.076 2.07c0 1.144.932 2.07 2.076 2.07h20.93v70.61H7.826V30.82zM69 20.924a2.072 2.072 0 000 4.146h46a2.074 2.074 0 000-4.146H69zm0 17.256a2.072 2.072 0 000 4.146h46a2.07 2.07 0 002.07-2.076c0-1.144-.926-2.07-2.07-2.07H69zm0 17.244a2.072 2.072 0 000 4.146h46a2.074 2.074 0 000-4.146H69z" fill="url(#b)" mask="url(#c)"/></g></g></svg>
